cmd/conneroh/_static/dist/svg/save-off.svg

<svg height="18" viewBox="0 0 18 18" width="18" xmlns="http://www.w3.org/2000/svg"><g fill="none" stroke="#fff" stroke-linecap="round" stroke-linejoin="round" stroke-width="2" transform="scale(.75)"><path d="m13 13h-5c-.552083 0-1 .447917-1 1v7m7-13h1m2 13v-4m-15-15 20 20"/><path d="m20.411458 20.411458c-.375.375-.880208.588542-1.411458.588542h-14c-1.104167 0-2-.895833-2-2v-14c0-.53125.213542-1.036458.588542-1.411458m25.911458 7.911458s5 5 4 5m-24.5-13.5h6.197917c.53125.005208 1.03125.223958 1.401041.598958l3.802084 3.802084c.375.369791.59375.869791.598958 1.401041v6.197917"/></g></svg>

<svg xmlns="http://www.w3.org/2000/svg" width="24" height="24" fill="none" stroke="white" stroke-linecap="round" stroke-linejoin="round" stroke-width="2">
    <path d="M13 13H8a1 1 0 0 0-1 1v7m7-13h1m2 13v-4M2 2l20 20"/>
    <path d="M20.41 20.41A2 2 0 0 1 19 21H5a2 2 0 0 1-2-2V5a2 2 0 0 1 .59-1.41M29.5 11.5s5 5 4 5M9 3h6.2a2 2 0 0 1 1.4.6l3.8 3.8a2 2 0 0 1 .6 1.4V15"/>
</svg>
